X:1
T:Title
%%score ( 1 2 ) ( 3 4 )
L:1/8
Q:1/4=90
M:4/4
K:Eb
V:1 treble nm="Midi_20"
V:2 treble 
V:3 bass nm="Midi_20"
V:4 bass 
V:1
"^Waterstock (66. 66. and refrain)""^John Goss\n(1800-80)" B2 | G3 A B2 e2 | B6 B2 | G3 A B2 c2 | %4
 F6 || F2 | G2 G2 e3 d | c6 c2 | f2 Bc d2 c2 | B6 ||"^Refrain" B2 | B2 e2 c2 BA | G3 A B2 c2 | %13
 BA GF E2 A2 | G4 F4 | E6 |] %16
V:2
 D2 | E3 D E2 G2 | F6 D2 | E3 E E2 E2 | D6 || D2 | E2 E2 G3 G | C6 F2 | F2 D=E F2 _E2 | D6 || D2 | %11
 E2 E2 E2 F2 | E3 D E2 A2 | GF ED E2 F2 | E4 D4 | E6 |] %16
V:3
 B,2 | B,3 B, B,2 B,2 | B,6 B,2 | E,3 F, G,2 F,E, | B,6 || B,2 | B,2 B,2 C3 B, | =A,6 A,2 | %8
 B,2 B,2 B,2 =A,2 | B,6 || B,2 | B,2 G,2 A,2 F,B, | B,3 A, G,2 E2 | E2 B,A, G,2 C2 | B,4 A,4 | %15
 G,6 |] %16
V:4
 B,,2 | E,3 F, G,2 E,2 | D,6 B,,2 | C,3 C, G,,2 A,,2 | B,,6 || B,,2 | E,2 E,2 C,3 C, | F,6 F,E, | %8
 D,2 G,2 F,2 F,2 | B,,6 || B,2 | G,2 E,2 A,2 D,2 | E,3 F, G,2 A,2 | B,2 B,,2 C,2 A,,2 | B,,4 B,,4 | %15
 E,6 |] %16

